Sources/FrostedUI/Resources/Icons.xcassets/storefrontItem32.imageset/storefront-item-32.svg

<svg width="32" height="32" viewBox="0 0 32 32" fill="none" xmlns="http://www.w3.org/2000/svg" data-fui-icon="true">
  <path
    d="M22 11C22.5859 11 23.16 11.1664 23.6553 11.4795L29.7373 15.3242C30.5232 15.821 31 16.6856 31 17.6152V24.3848C31 25.3144 30.5232 26.1791 29.7373 26.6758L23.6553 30.5205C23.16 30.8336 22.5859 31 22 31C21.4141 31 20.84 30.8336 20.3447 30.5205L14.2627 26.6758C13.4768 26.1791 13 25.3144 13 24.3848V17.6152C13 16.6856 13.4768 15.821 14.2627 15.3242L20.3447 11.4795C20.84 11.1664 21.4141 11 22 11ZM22 12.5C21.6979 12.5 21.4019 12.5857 21.1465 12.7471L15.0635 16.5918C14.7126 16.8137 14.5 17.2001 14.5 17.6152V24.3848C14.5 24.7999 14.7126 25.1863 15.0635 25.4082L21.1465 29.2529C21.4019 29.4143 21.6979 29.5 22 29.5C22.3021 29.5 22.5981 29.4143 22.8535 29.2529L28.9365 25.4082C29.2874 25.1863 29.5 24.7999 29.5 24.3848V17.6152C29.5 17.2001 29.2874 16.8137 28.9365 16.5918L22.8535 12.7471C22.5981 12.5857 22.3021 12.5 22 12.5ZM16.5352 17.8291C16.7322 17.4651 17.1876 17.3297 17.5518 17.5264L21.9961 19.9316L26.4414 17.5264C26.8055 17.3293 27.2607 17.4652 27.458 17.8291C27.6551 18.1932 27.5202 18.6484 27.1562 18.8457L22.7432 21.2344V26.4668C22.7432 26.881 22.4074 27.2168 21.9932 27.2168C21.5792 27.2165 21.2432 26.8808 21.2432 26.4668V21.2295L16.8379 18.8457C16.4739 18.6484 16.3381 18.1932 16.5352 17.8291ZM26.25 2C28.8734 2 31 4.12665 31 6.75V12.25C31 12.6642 30.6642 13 30.25 13C29.8358 13 29.5 12.6642 29.5 12.25V6.75C29.5 4.95507 28.0449 3.5 26.25 3.5H5.75C3.95507 3.5 2.5 4.95507 2.5 6.75V21.25C2.5 23.0449 3.95507 24.5 5.75 24.5H10.25C10.6642 24.5 11 24.8358 11 25.25C11 25.6642 10.6642 26 10.25 26H5.75C3.12665 26 1 23.8734 1 21.25V6.75C1 4.12665 3.12665 2 5.75 2H26.25ZM6.5 6C7.32843 6 8 6.67157 8 7.5C8 8.32843 7.32843 9 6.5 9C5.67157 9 5 8.32843 5 7.5C5 6.67157 5.67157 6 6.5 6ZM11.5 6C12.3284 6 13 6.67157 13 7.5C13 8.32843 12.3284 9 11.5 9C10.6716 9 10 8.32843 10 7.5C10 6.67157 10.6716 6 11.5 6ZM16.5 6C17.3284 6 18 6.67157 18 7.5C18 8.32843 17.3284 9 16.5 9C15.6716 9 15 8.32843 15 7.5C15 6.67157 15.6716 6 16.5 6Z"
    fill="currentColor"
  />
</svg>

<svg xmlns="http://www.w3.org/2000/svg" width="32" height="32" fill="none" data-fui-icon="true" viewBox="0 0 32 32"><path fill="currentColor" d="M22 11c.586 0 1.16.166 1.655.48l6.082 3.844A2.71 2.71 0 0 1 31 17.615v6.77a2.71 2.71 0 0 1-1.263 2.29l-6.082 3.845a3.1 3.1 0 0 1-3.31 0l-6.082-3.844A2.71 2.71 0 0 1 13 24.385v-6.77c0-.93.477-1.794 1.263-2.29l6.082-3.845A3.1 3.1 0 0 1 22 11m0 1.5c-.302 0-.598.086-.854.247l-6.083 3.845a1.21 1.21 0 0 0-.563 1.023v6.77c0 .415.213.801.563 1.023l6.083 3.845a1.6 1.6 0 0 0 1.707 0l6.083-3.845a1.21 1.21 0 0 0 .564-1.023v-6.77a1.21 1.21 0 0 0-.564-1.023l-6.082-3.845A1.6 1.6 0 0 0 22 12.5m-5.465 5.33a.75.75 0 0 1 1.017-.304l4.444 2.406 4.445-2.406a.75.75 0 0 1 .715 1.32l-4.413 2.388v5.233a.75.75 0 0 1-1.5 0V21.23l-4.405-2.384a.75.75 0 0 1-.303-1.017M26.25 2A4.75 4.75 0 0 1 31 6.75v5.5a.75.75 0 0 1-1.5 0v-5.5a3.25 3.25 0 0 0-3.25-3.25H5.75A3.25 3.25 0 0 0 2.5 6.75v14.5a3.25 3.25 0 0 0 3.25 3.25h4.5a.75.75 0 0 1 0 1.5h-4.5A4.75 4.75 0 0 1 1 21.25V6.75A4.75 4.75 0 0 1 5.75 2zM6.5 6a1.5 1.5 0 1 1 0 3 1.5 1.5 0 0 1 0-3m5 0a1.5 1.5 0 1 1 0 3 1.5 1.5 0 0 1 0-3m5 0a1.5 1.5 0 1 1 0 3 1.5 1.5 0 0 1 0-3"/></svg>
